X:1
T:(The saucy little bird on) Nelly's Hat
C:Traditional/Scan Tester
I:abc2nwc
M:4/4
L:1/8
K:G
|: (3DEF|G2G2G3/2B/2 A3/2G/2| (3FGA d2d7/2c/2|
B3/2d/2 B3/2G/2 A3/2c/2 A3/2F/2|G3/2A/2  (3BAG D2 (3DEF|
G2G2G3/2B/2 A3/2G/2| (3FGA d2d7/2c/2|
B3/2d/2 B3/2G/2 A3/2c/2 A3/2F/2|G2B2G2:|
|:B3/2c/2|.d2.d2d2e2|d2c3/2B/2 c2A3/2B/2|
c3/2B/2 A3/2B/2 c2d2|c2B3/2A/2 B2 (3DEF|
G2G2G3/2B/2 A3/2G/2| (3FGA d2d7/2c/2|
B3/2d/2 B3/2G/2 A3/2c/2 A3/2F/2|G2G2G2:|


